public/assets/images/career/09.svg

<svg width="20" height="20" viewBox="0 0 20 20" fill="none" xmlns="http://www.w3.org/2000/svg">
<path fill-rule="evenodd" clip-rule="evenodd" d="M16.875 6.875V3.75H10.625V6.875H16.875ZM10.625 2.5H16.875C17.2065 2.5 17.5245 2.6317 17.7589 2.86612C17.9933 3.10054 18.125 3.41848 18.125 3.75V6.875C18.125 7.20652 17.9933 7.52446 17.7589 7.75888C17.5245 7.9933 17.2065 8.125 16.875 8.125H10.625C10.2935 8.125 9.97554 7.9933 9.74112 7.75888C9.5067 7.52446 9.375 7.20652 9.375 6.875V3.75C9.375 3.41848 9.5067 3.10054 9.74112 2.86612C9.97554 2.6317 10.2935 2.5 10.625 2.5ZM10 15.625V10.625H3.75V15.625H10ZM3.75 9.375H10C10.3315 9.375 10.6495 9.5067 10.8839 9.74112C11.1183 9.97554 11.25 10.2935 11.25 10.625V15.625C11.25 15.9565 11.1183 16.2745 10.8839 16.5089C10.6495 16.7433 10.3315 16.875 10 16.875H3.75C3.41848 16.875 3.10054 16.7433 2.86612 16.5089C2.6317 16.2745 2.5 15.9565 2.5 15.625V10.625C2.5 10.2935 2.6317 9.97554 2.86612 9.74112C3.10054 9.5067 3.41848 9.375 3.75 9.375ZM16.875 10.625V13.75H13.75V10.625H16.875ZM16.875 9.375H13.75C13.4185 9.375 13.1005 9.5067 12.8661 9.74112C12.6317 9.97554 12.5 10.2935 12.5 10.625V13.75C12.5 14.0815 12.6317 14.3995 12.8661 14.6339C13.1005 14.8683 13.4185 15 13.75 15H16.875C17.2065 15 17.5245 14.8683 17.7589 14.6339C17.9933 14.3995 18.125 14.0815 18.125 13.75V10.625C18.125 10.2935 17.9933 9.97554 17.7589 9.74112C17.5245 9.5067 17.2065 9.375 16.875 9.375ZM6.875 6.875V3.75H3.75V6.875H6.875ZM3.75 2.5H6.875C7.20652 2.5 7.52446 2.6317 7.75888 2.86612C7.9933 3.10054 8.125 3.41848 8.125 3.75V6.875C8.125 7.20652 7.9933 7.52446 7.75888 7.75888C7.52446 7.9933 7.20652 8.125 6.875 8.125H3.75C3.41848 8.125 3.10054 7.9933 2.86612 7.75888C2.6317 7.52446 2.5 7.20652 2.5 6.875V3.75C2.5 3.41848 2.6317 3.10054 2.86612 2.86612C3.10054 2.6317 3.41848 2.5 3.75 2.5Z" fill="#050D20"/>
</svg>

<svg xmlns="http://www.w3.org/2000/svg" width="20" height="20" fill="none" viewBox="0 0 20 20"><path fill="#050d20" fill-rule="evenodd" d="M16.875 6.875V3.75h-6.25v3.125zM10.625 2.5h6.25a1.25 1.25 0 0 1 1.25 1.25v3.125a1.25 1.25 0 0 1-1.25 1.25h-6.25a1.25 1.25 0 0 1-1.25-1.25V3.75a1.25 1.25 0 0 1 1.25-1.25M10 15.625v-5H3.75v5zm-6.25-6.25H10a1.25 1.25 0 0 1 1.25 1.25v5a1.25 1.25 0 0 1-1.25 1.25H3.75a1.25 1.25 0 0 1-1.25-1.25v-5a1.25 1.25 0 0 1 1.25-1.25m13.125 1.25v3.125H13.75v-3.125zm0-1.25H13.75a1.25 1.25 0 0 0-1.25 1.25v3.125A1.25 1.25 0 0 0 13.75 15h3.125a1.25 1.25 0 0 0 1.25-1.25v-3.125a1.25 1.25 0 0 0-1.25-1.25m-10-2.5V3.75H3.75v3.125zM3.75 2.5h3.125a1.25 1.25 0 0 1 1.25 1.25v3.125a1.25 1.25 0 0 1-1.25 1.25H3.75a1.25 1.25 0 0 1-1.25-1.25V3.75A1.25 1.25 0 0 1 3.75 2.5" clip-rule="evenodd"/></svg>
